symbols/web/playlist_play/materialsymbolsoutlined/playlist_play_wght700grad200_48px.svg

<svg xmlns="http://www.w3.org/2000/svg" height="48" width="48"><path d="M3.95 32.75v-4.6H20v4.6Zm0-9.35v-4.55h24.1v4.55Zm0-9.25V9.6h24.1v4.55Zm26.85 31.1V26l13.25 9.65Z"/></svg>

<svg xmlns="http://www.w3.org/2000/svg" height="48" width="48"><path d="M3.95 14.15V9.6H28.05V14.15ZM3.95 23.4V18.85H28.05V23.4ZM3.95 32.75V28.15H20V32.75ZM30.8 45.25V26L44.05 35.65Z"/></svg>
